gama.ui.shared/icons_svg/dark/gaml/_string.svg

<svg height="18" viewBox="-562.274 -2807.74 24 18" width="24" xmlns="http://www.w3.org/2000/svg"><path d="m-559.7516-2797.8837h3.7593l-1.87965-5.2349zm-.30394.8567-1.43976 4.0097c-.07996.2227-.3119.3341-.5199.2483-.20794-.0855-.3119-.334-.2319-.5568l3.9992-11.1379c.128-.3683.6159-.3683.7439 0l3.99924 11.1379c.07996.2228-.02399.4713-.23194.5568-.208.0858-.4399-.0256-.5199-.2483l-1.43975-4.0097zm12.94959-1.885c.024.0515.032.1115.032.1715v.1715.257 4.2837c0 .2399.17595.4283.39995.4283.2239 0 .3999.1886.3999.4284 0 .2399-.176.4284-.3999.4284-.42395 0-.7999-.2398-1.01584-.5998-.35996.3685-.84786.5998-1.38376.5998h-1.5997c-1.5357 0-2.39954-.7368-2.39954-2.1418s.79184-1.902 2.93544-2.339c.05334-.0115.1093-.023.168-.0343.3519-.0771.5759-.12.79984-.1799.83186-.2228 1.23176-.5912 1.28776-1.1481-.072-1.2851-.7039-1.8677-1.9916-1.8677-1.4078 0-1.99966.4283-1.99966 1.285 0 .24-.17594.4285-.39994.4285-.22394 0-.3999-.1885-.3999-.4285 0-1.422 1.0078-2.1418 2.7995-2.1418 1.62367 0 2.5755.8311 2.76745 2.3988zm-.76785 4.027v-2.2277c-.29595.2142-.6639.3857-1.1038.5055-.23995.06-.4719.12-.83984.1972-.05333.0113-.10931.0227-.16796.034-1.7677.36-2.2876.66-2.2876 1.4995s.4719 1.2851 1.5997 1.2851h1.5997c.6639 0 1.1998-.574 1.1998-1.2851z" fill="#999"/></svg>

<?xml version="1.0" encoding="UTF-8" standalone="no"?>
<!DOCTYPE svg PUBLIC "-//W3C//DTD SVG 1.1//EN" "http://www.w3.org/Graphics/SVG/1.1/DTD/svg11.dtd">
<svg xmlns:dc="http://purl.org/dc/elements/1.1/" xmlns:xl="http://www.w3.org/1999/xlink" version="1.1" xmlns="http://www.w3.org/2000/svg" viewBox="-562.2741 -2807.74 24 18" width="24" height="18">
  <defs/>
  <g id="SOURCES" stroke-dasharray="none" stroke="none" stroke-opacity="1" fill="none" fill-opacity="1">
    <title>SOURCES</title>
    <g id="SOURCES_New">
      <title>New</title>
      <g id="Group_10477">
        <g id="Graphic_10292"/>
        <g id="Group_10290">
          <title>text</title>
          <g id="Graphic_10291">
            <path d="M -559.7516 -2797.8837 L -555.9923 -2797.8837 L -557.87195 -2803.1186 Z M -560.05554 -2797.027 L -561.4953 -2793.0173 C -561.57526 -2792.7946 -561.8072 -2792.6832 -562.0152 -2792.769 C -562.22314 -2792.8545 -562.3271 -2793.103 -562.2471 -2793.3258 L -558.2479 -2804.4637 C -558.1199 -2804.832 -557.632 -2804.832 -557.504 -2804.4637 L -553.50476 -2793.3258 C -553.4248 -2793.103 -553.52875 -2792.8545 -553.7367 -2792.769 C -553.9447 -2792.6832 -554.1766 -2792.7946 -554.2566 -2793.0173 L -555.69635 -2797.027 L -560.05554 -2797.027 Z M -547.10595 -2798.912 C -547.08195 -2798.8605 -547.07395 -2798.8005 -547.07395 -2798.7405 C -547.07395 -2798.6805 -547.07395 -2798.629 -547.07395 -2798.569 C -547.07395 -2798.4835 -547.07395 -2798.3978 -547.07395 -2798.312 L -547.07395 -2794.0283 C -547.07395 -2793.7884 -546.898 -2793.6 -546.674 -2793.6 C -546.4501 -2793.6 -546.2741 -2793.4114 -546.2741 -2793.1716 C -546.2741 -2792.9317 -546.4501 -2792.7432 -546.674 -2792.7432 C -547.09795 -2792.7432 -547.4739 -2792.983 -547.68984 -2793.343 C -548.0498 -2792.9745 -548.5377 -2792.7432 -549.0736 -2792.7432 L -550.6733 -2792.7432 C -552.209 -2792.7432 -553.07284 -2793.48 -553.07284 -2794.885 C -553.07284 -2796.29 -552.281 -2796.787 -550.1374 -2797.224 C -550.08406 -2797.2355 -550.0281 -2797.247 -549.9694 -2797.2583 C -549.6175 -2797.3354 -549.3935 -2797.3783 -549.16956 -2797.4382 C -548.3377 -2797.661 -547.9378 -2798.0294 -547.8818 -2798.5863 C -547.9538 -2799.8714 -548.5857 -2800.454 -549.8734 -2800.454 C -551.2812 -2800.454 -551.87306 -2800.0257 -551.87306 -2799.169 C -551.87306 -2798.929 -552.049 -2798.7405 -552.273 -2798.7405 C -552.49694 -2798.7405 -552.6729 -2798.929 -552.6729 -2799.169 C -552.6729 -2800.591 -551.6651 -2801.3108 -549.8734 -2801.3108 C -548.24973 -2801.3108 -547.2979 -2800.4797 -547.10595 -2798.912 Z M -547.8738 -2794.885 L -547.8738 -2797.1127 C -548.16975 -2796.8985 -548.5377 -2796.727 -548.9776 -2796.6072 C -549.21755 -2796.5472 -549.4495 -2796.4872 -549.81744 -2796.41 C -549.87077 -2796.3987 -549.92675 -2796.3873 -549.9854 -2796.376 C -551.7531 -2796.016 -552.273 -2795.716 -552.273 -2794.8765 C -552.273 -2794.037 -551.8011 -2793.5914 -550.6733 -2793.5914 L -549.0736 -2793.5914 C -548.4097 -2793.5914 -547.8738 -2794.1654 -547.8738 -2794.8765 Z" fill="#999"/>
          </g>
        </g>
      </g>
    </g>
  </g>
</svg>
